build/img/favicon/icon.svg

<svg width="32" height="32" viewBox="0 0 32 32" fill="none" xmlns="http://www.w3.org/2000/svg">
<rect width="32" height="32" rx="8" fill="#EEEEEE"/>
<path d="M24.6319 17.4405C24.5458 15.1708 24.2015 12.9012 24.2015 10.6315C24.2015 8.78216 24.5458 6.84876 23.8572 5.08347C23.8572 4.91535 23.9432 4.66316 23.9432 4.49504C24.1154 3.57037 21.1024 4.07473 20.672 4.91535C20.4138 5.16753 20.2416 5.41971 20.3277 5.75596C20.3277 5.84002 20.4138 5.92408 20.4138 6.00814C19.8112 8.6981 19.0364 11.3881 18.1756 13.994C17.8312 15.0027 17.4008 16.0114 17.0565 17.0202C16.54 16.0955 16.0234 15.1708 15.593 14.1621C14.3878 11.2199 13.3548 8.2778 11.8914 5.50378C12.0635 4.24286 9.13667 4.32692 8.53408 5.50378C7.8454 6.93282 7.93148 8.36186 8.18974 9.95902C8.44799 11.7243 8.53408 13.4055 8.53408 15.1708C8.53408 18.5333 8.87841 21.8957 8.87841 25.2582C8.53408 25.5944 8.44799 26.0147 8.79233 26.435C8.9645 26.6032 9.13667 26.7713 9.30884 26.9394C10.0836 27.5278 12.3218 27.0235 12.3218 25.8466C12.3218 22.316 12.0635 18.8695 11.9775 15.3389C11.9775 15.0027 11.9775 14.6665 11.9775 14.3302C12.0635 14.4143 12.0635 14.5824 12.1496 14.6665C12.6661 16.0114 13.2687 17.3564 14.0435 18.6173C14.8183 19.8783 15.1626 21.2232 15.593 22.5682C15.4209 22.7363 15.3348 22.9885 15.4209 23.1566C15.4209 23.3248 15.5069 23.4088 15.6791 23.4929C16.1956 23.9973 17.3147 23.7451 17.8312 23.4929C18.0895 23.4088 18.3477 23.2407 18.5199 23.1566C18.7782 22.9885 19.2947 22.5682 19.1225 22.1479C19.1225 22.0638 19.0364 21.9798 19.0364 21.8957C19.4668 20.8029 19.639 19.7101 19.8973 18.5333C20.1555 17.3564 20.5859 16.1796 21.0164 15.0027C21.1024 15.5071 21.1024 16.0955 21.1885 16.5999C21.3607 18.7855 21.1885 20.887 21.1885 23.0726C21.1885 23.8291 21.2746 24.4176 21.3607 25.1741C21.4468 25.4263 21.705 26.6872 21.6189 26.7713C21.1024 27.2756 21.2746 27.8641 21.9633 27.9481C22.7381 28.1163 23.7711 27.8641 24.3737 27.3597C25.4067 26.435 24.8902 24.9219 24.718 23.7451C24.2015 21.7276 24.6319 19.4579 24.6319 17.4405Z" fill="black"/>
</svg>

<svg width="32" height="32" fill="none" xmlns="http://www.w3.org/2000/svg"><rect width="32" height="32" rx="8" fill="#EEE"/><path d="M24.632 17.44c-.086-2.27-.43-4.539-.43-6.809 0-1.849.344-3.782-.345-5.548 0-.168.086-.42.086-.588.172-.925-2.84-.42-3.271.42-.258.253-.43.505-.344.841 0 .084.086.168.086.252-.603 2.69-1.378 5.38-2.238 7.986-.345 1.009-.775 2.017-1.12 3.026-.516-.924-1.033-1.85-1.463-2.858-1.205-2.942-2.238-5.884-3.702-8.658.172-1.261-2.754-1.177-3.357 0-.689 1.429-.603 2.858-.344 4.455.258 1.765.344 3.447.344 5.212 0 3.362.344 6.725.344 10.087-.344.336-.43.757-.086 1.177l.517.504c.775.589 3.013.084 3.013-1.092 0-3.531-.258-6.978-.345-10.508V14.33c.086.084.086.252.173.336.516 1.345 1.119 2.69 1.893 3.951.775 1.261 1.12 2.606 1.55 3.951-.172.168-.258.42-.172.589 0 .168.086.252.258.336.517.504 1.636.252 2.152 0 .259-.084.517-.252.689-.336.258-.169.775-.589.602-1.01 0-.083-.086-.167-.086-.251.43-1.093.603-2.186.861-3.363.259-1.177.689-2.353 1.12-3.53.085.504.085 1.093.172 1.597.172 2.185 0 4.287 0 6.473 0 .756.086 1.345.172 2.101.086.252.344 1.513.258 1.597-.517.505-.344 1.093.344 1.177.775.168 1.808-.084 2.41-.588 1.034-.925.517-2.438.345-3.615-.517-2.017-.086-4.287-.086-6.305z" fill="#000"/></svg>
